src/assets/img/svg/test.svg

<svg xmlns="http://www.w3.org/2000/svg" width="116" height="116" viewBox="0 0 116 116">
    <g fill="none" fill-rule="evenodd" transform="translate(2 2)">
        <circle cx="56" cy="56" r="55" fill="#FFF" fill-opacity="0" stroke="#50BD5C" stroke-width="2"/>
        <path fill="#FFF" fill-opacity="0" stroke="#50BD5C" stroke-width="3" d="M57.5 102.476V102l-.49.49c-.335.006-.672.01-1.01.01l.5.5-.5.5c.33 0 .66-.003.99-.01l.51.51v-.523c24.671-.766 44.66-20.364 45.935-44.976h.555l-.53-.54c.013-.309.022-.618.029-.928l-.479.468-.52-.53c-.007.358-.019.716-.034 1.073l-.467.457h.445C101.16 82.557 81.62 101.71 57.5 102.476zm-3-92.952V10l.49-.49c.335-.006.672-.01 1.01-.01l-.5-.5.5-.5c-.33 0-.66.003-.99.01L54.5 8v.523C29.126 9.31 8.765 29.998 8.503 55.501H8.01v1.5l.5-.01.001.042 1.5-.032v-1.5h-.508c.262-24.95 20.175-45.19 44.997-45.977z"/>
        <path fill="#50BD5C" fill-rule="nonzero" d="M30.39 68V48.92h7.38V47H20.79v1.92h7.38V68h2.22zm25.02 0v-1.92H42.78v-7.8h10.86v-1.89H42.78v-7.47h12.18V47h-14.4v21h14.85zm10.26.18c1.72 0 3.17-.255 4.35-.765 1.18-.51 2.055-1.2 2.625-2.07.57-.87.855-1.835.855-2.895 0-1.28-.33-2.295-.99-3.045-.66-.75-1.465-1.31-2.415-1.68-.95-.37-2.195-.745-3.735-1.125-1.3-.32-2.335-.615-3.105-.885s-1.41-.66-1.92-1.17c-.51-.51-.765-1.185-.765-2.025 0-1.12.465-2.035 1.395-2.745.93-.71 2.315-1.065 4.155-1.065.96 0 1.94.145 2.94.435 1 .29 1.94.725 2.82 1.305l.75-1.77c-.84-.58-1.835-1.035-2.985-1.365-1.15-.33-2.325-.495-3.525-.495-1.72 0-3.16.26-4.32.78-1.16.52-2.02 1.215-2.58 2.085-.56.87-.84 1.835-.84 2.895 0 1.3.335 2.33 1.005 3.09.67.76 1.475 1.325 2.415 1.695.94.37 2.2.755 3.78 1.155 1.32.32 2.35.615 3.09.885.74.27 1.365.655 1.875 1.155s.765 1.17.765 2.01c0 1.1-.47 1.995-1.41 2.685s-2.35 1.035-4.23 1.035c-1.34 0-2.64-.235-3.9-.705-1.26-.47-2.27-1.085-3.03-1.845l-.87 1.71c.78.82 1.885 1.48 3.315 1.98s2.925.75 4.485.75zM83.58 68V48.92h7.38V47H73.98v1.92h7.38V68h2.22z"/>
    </g>
</svg>

<?xml version="1.0" encoding="UTF-8"?>
<svg width="116px" height="116px" viewBox="0 0 116 116" version="1.1" xmlns="http://www.w3.org/2000/svg" xmlns:xlink="http://www.w3.org/1999/xlink">
    <!-- Generator: Sketch 61.2 (89653) - https://sketch.com -->
    <title>icon-test-big</title>
    <desc>Created with Sketch.</desc>
    <g id="icon-test-big" stroke="none" stroke-width="1" fill="none" fill-rule="evenodd">
        <g id="Group-15" transform="translate(2.000000, 2.000000)">
            <circle id="Oval" stroke="var(--icon-color, #50BD5C)" stroke-width="2" fill-opacity="0" fill="#FFFFFF" cx="56" cy="56" r="55"></circle>
            <path d="M56,104 L56,102 C81.0706092,102 101.456852,81.9438427 101.989326,57.0009303 L103.98977,57.0009303 C103.456917,83.0485315 82.1751971,104 56,104 Z M56,8 L56,10 C30.5949015,10 10,30.5949015 10,56 C10,56.3344893 10.0035701,56.6681447 10.0106743,57.0009826 L8.01022988,57.0009826 C8.00342099,56.6681428 8,56.3344709 8,56 C8,29.490332 29.490332,8 56,8 Z" id="Shape" fill="var(--icon-color, #50BD5C)"></path>
            <path d="M30.39,68 L30.39,48.92 L37.77,48.92 L37.77,47 L20.79,47 L20.79,48.92 L28.17,48.92 L28.17,68 L30.39,68 Z M55.41,68 L55.41,66.08 L42.78,66.08 L42.78,58.28 L53.64,58.28 L53.64,56.39 L42.78,56.39 L42.78,48.92 L54.96,48.92 L54.96,47 L40.56,47 L40.56,68 L55.41,68 Z M65.67,68.18 C67.39,68.18 68.84,67.925 70.02,67.415 C71.2,66.905 72.075,66.215 72.645,65.345 C73.215,64.475 73.5,63.51 73.5,62.45 C73.5,61.17 73.17,60.155 72.51,59.405 C71.85,58.655 71.045,58.095 70.095,57.725 C69.145,57.355 67.9,56.98 66.36,56.6 C65.06,56.28 64.025,55.985 63.255,55.715 C62.485,55.445 61.845,55.055 61.335,54.545 C60.825,54.035 60.57,53.36 60.57,52.52 C60.57,51.4 61.035,50.485 61.965,49.775 C62.895,49.065 64.28,48.71 66.12,48.71 C67.08,48.71 68.06,48.855 69.06,49.145 C70.06,49.435 71,49.87 71.88,50.45 L71.88,50.45 L72.63,48.68 C71.79,48.1 70.795,47.645 69.645,47.315 C68.495,46.985 67.32,46.82 66.12,46.82 C64.4,46.82 62.96,47.08 61.8,47.6 C60.64,48.12 59.78,48.815 59.22,49.685 C58.66,50.555 58.38,51.52 58.38,52.58 C58.38,53.88 58.715,54.91 59.385,55.67 C60.055,56.43 60.86,56.995 61.8,57.365 C62.74,57.735 64,58.12 65.58,58.52 C66.9,58.84 67.93,59.135 68.67,59.405 C69.41,59.675 70.035,60.06 70.545,60.56 C71.055,61.06 71.31,61.73 71.31,62.57 C71.31,63.67 70.84,64.565 69.9,65.255 C68.96,65.945 67.55,66.29 65.67,66.29 C64.33,66.29 63.03,66.055 61.77,65.585 C60.51,65.115 59.5,64.5 58.74,63.74 L58.74,63.74 L57.87,65.45 C58.65,66.27 59.755,66.93 61.185,67.43 C62.615,67.93 64.11,68.18 65.67,68.18 Z M83.58,68 L83.58,48.92 L90.96,48.92 L90.96,47 L73.98,47 L73.98,48.92 L81.36,48.92 L81.36,68 L83.58,68 Z" id="TEST" fill="var(--icon-color, #50BD5C)" fill-rule="nonzero"></path>
        </g>
    </g>
</svg>
